; generated by PrusaSlicer 2.2.0+ on 2023-02-28 at 01:54:54 UTC

; 

; external perimeters extrusion width = 0.45mm
; perimeters extrusion width = 0.45mm
; infill extrusion width = 0.45mm
; solid infill extrusion width = 0.45mm
; top infill extrusion width = 0.40mm
; support material extrusion width = 0.35mm
; first layer extrusion width = 0.42mm

M73 P0 R233
M73 Q0 S237
M201 X1000 Y1000 Z200 E5000 ; sets maximum accelerations, mm/sec^2
M203 X200 Y200 Z12 E120 ; sets maximum feedrates, mm/sec
M204 P1250 R1250 T1250 ; sets acceleration (P, T) and retract acceleration (R), mm/sec^2
M205 X8.00 Y8.00 Z0.40 E4.50 ; sets the jerk limits, mm/sec
M205 S0 T0 ; sets the minimum extruding and travel feed rate, mm/sec
M107
M862.3 P "MK3S" ; printer model check
M862.1 P0.4 ; nozzle diameter check
M115 U3.12.1 ; tell printer latest fw version
G90 ; use absolute coordinates
M83 ; extruder relative mode
M104 S275 ; set extruder temp
M140 S110 ; set bed temp
M190 S110 ; wait for bed temp
M109 S275 ; wait for extruder temp
G28 W ; home all without mesh bed level
G80 ; mesh bed leveling
G1 Y-3.0 F1000.0 ; go outside print area
G92 E0.0
G1 X60.0 E9.0 F1000.0 ; intro line
M73 Q0 S237
M73 P0 R233
G1 X100.0 E12.5 F1000.0 ; intro line
G92 E0.0
M221 S95

; Don't change E values below. Excessive value can damage the printer.
M907 E430 ; set extruder motor current
G21 ; set units to millimeters
G90 ; use absolute coordinates
M83 ; use relative distances for extrusion
M900 K0.07 ; Filament gcode LA 1.5
M900 K45 ; Filament gcode LA 1.0
;BEFORE_LAYER_CHANGE
G92 E0.0
;0.2


G1 E-1.00000 F2100.00000
G1 Z0.200 F10800.000
;AFTER_LAYER_CHANGE
;0.2
G1 Z0.400
G1 X96.581 Y158.965
G1 Z0.200
G1 E1.00000 F2100.00000
M204 S1000
G1 F1200.000
G1 X95.834 Y158.658 E0.02532
G1 X95.232 Y158.120 E0.02532
G1 X84.778 Y144.035 E0.54997
G1 X84.588 Y143.518 E0.01728
G1 X84.523 Y142.971 E0.01728
G1 X84.543 Y66.725 E2.39064
G1 X84.688 Y66.165 E0.01811
G1 X84.963 Y65.658 E0.01811
G1 X95.230 Y51.713 E0.54295
G1 X95.608 Y51.333 E0.01680
G1 X96.061 Y51.046 E0.01680
G1 X96.566 Y50.869 E0.01680
G1 X97.099 Y50.809 E0.01680
G1 X150.653 Y50.979 E1.67915
G1 X151.159 Y51.036 E0.01597
G1 X151.817 Y51.290 E0.02213
G1 X152.372 Y51.726 E0.02213
G1 X164.865 Y65.444 E0.58174
G1 X165.222 Y65.964 E0.01977
G1 X165.411 Y66.481 E0.01728
G1 X165.477 Y67.028 E0.01728
G1 X165.452 Y143.306 E2.39162
G1 X165.258 Y143.961 E0.02142
G1 X164.885 Y144.533 E0.02142
G1 X152.396 Y158.418 E0.58555
G1 X151.714 Y158.935 E0.02684
G1 X151.193 Y159.126 E0.01740
G1 X150.641 Y159.191 E0.01741
G1 X113.676 Y159.191 E1.15902
G1 X96.641 Y158.966 E0.53418
G1 F8640.000
G1 X95.834 Y158.658 E-0.19938
G1 X95.232 Y158.120 E-0.18643
G1 X93.776 Y156.158 E-0.56419
G1 E-0.05000 F2100.00000
G1 Z0.400 F10800.000
G1 X87.145 Y62.377
G1 Z0.200
G1 E1.00000 F2100.00000
G1 F1200.000
G1 X85.953 Y62.387 E0.03736
G1 X84.800 Y62.778 E0.03820
G1 X83.828 Y63.437 E0.03681
G1 X82.938 Y64.421 E0.04160
G1 X82.561 Y65.108 E0.02457
G1 X82.298 Y65.835 E0.02423
G1 X82.186 Y143.472 E2.43427
G1 X82.496 Y144.736 E0.04079
G1 X83.146 Y145.849 E0.04042
G1 X84.027 Y146.733 E0.03914
G1 X84.980 Y147.304 E0.03484
G1 X86.050 Y147.630 E0.03506
G1 X87.217 Y147.638 E0.03660
G1 X87.689 Y147.641 F10800.000
G1 F1200.000
G1 X92.200 Y147.670 E0.14143
G1 X92.232 Y153.761 E0.19097
G1 X92.235 Y154.398 F10800.000
G1 F1200.000
G1 X92.252 Y157.503 E0.09734
G1 X92.598 Y158.632 E0.03704
G1 X93.409 Y159.900 E0.04717
G1 X94.578 Y160.872 E0.04770
G1 X95.993 Y161.449 E0.04791
G1 X96.764 Y161.546 E0.02435
G1 X113.281 Y161.546 E0.51789
G1 X113.578 Y161.514 E0.00937
G1 X114.857 Y161.460 E0.04015
G1 X115.636 Y161.223 E0.02551
G1 X116.386 Y160.847 E0.02632
G1 X117.873 Y159.380 E0.06551
G1 X118.063 Y159.002 F10800.000
G1 F1200.000
G1 X118.291 Y158.550 E0.01589
G1 X118.572 Y157.466 E0.03510
G1 X118.589 Y147.678 E0.30692
G1 X131.413 Y147.678 E0.40208
G1 X131.455 Y157.647 E0.31260
G1 X131.797 Y158.765 E0.03663
G1 X131.941 Y159.002 E0.00872
G1 X132.170 Y159.380 F10800.000
G1 F1200.000
G1 X132.358 Y159.690 E0.01139
G1 X133.271 Y160.599 E0.04040
G1 X134.421 Y161.245 E0.04135
G1 X135.401 Y161.498 E0.03174
G1 X136.441 Y161.516 E0.03260
G1 X136.719 Y161.546 E0.00877
G1 X150.234 Y161.546 E0.42376
G1 X150.504 Y161.518 E0.00851
G1 X151.590 Y161.493 E0.03405
G1 X152.686 Y161.184 E0.03571
G1 X153.737 Y160.550 E0.03848
G1 X154.643 Y159.630 E0.04049
G1 X155.185 Y158.699 E0.03376
G1 X155.509 Y157.580 E0.03654
G1 X155.517 Y155.230 E0.07368
G1 X155.519 Y154.664 F10800.000
G1 F1200.000
G1 X155.542 Y147.670 E0.21929
G1 X161.859 Y147.616 E0.19807
G1 X162.370 Y147.612 F10800.000
G1 F1200.000
G1 X164.114 Y147.597 E0.05470
G1 X165.570 Y147.027 E0.04901
G1 X166.151 Y146.579 E0.02303
G1 X166.753 Y145.977 E0.02666
G1 X167.399 Y144.977 E0.03734
G1 X167.766 Y143.814 E0.03824
G1 X167.814 Y66.527 E2.42330
G1 X167.504 Y65.264 E0.04077
G1 X166.883 Y64.188 E0.03893
G1 X165.972 Y63.267 E0.04063
G1 X165.008 Y62.691 E0.03520
G1 X163.934 Y62.367 E0.03517
G1 X162.311 Y62.359 E0.05089
G1 X161.799 Y62.357 F10800.000
G1 F1200.000
G1 X155.539 Y62.326 E0.19627
G1 X155.509 Y55.450 E0.21558
G1 X155.506 Y54.888 F10800.000
G1 F1200.000
G1 X155.496 Y52.557 E0.07306
G1 X155.074 Y51.219 E0.04401
G1 X154.268 Y50.041 E0.04475
G1 X153.149 Y49.120 E0.04542
G1 X152.050 Y48.637 E0.03765
G1 X150.982 Y48.454 E0.03396
G1 X135.914 Y48.454 E0.47246
G1 X134.432 Y48.808 E0.04778
G1 X133.374 Y49.410 E0.03815
G1 X132.535 Y50.212 E0.03642
G1 X132.175 Y50.732 E0.01981
G1 X131.955 Y51.108 F10800.000
G1 F1200.000
G1 X131.450 Y52.615 E0.04984
G1 X131.412 Y62.322 E0.30437
G1 X118.586 Y62.322 E0.40213
G1 X118.551 Y52.617 E0.30430
G1 X118.132 Y51.242 E0.04508
G1 X118.021 Y51.064 E0.00659
G1 X117.784 Y50.686 F10800.000
G1 F1200.000
G1 X117.563 Y50.332 E0.01307
G1 X116.888 Y49.627 E0.03061
G1 X115.908 Y48.965 E0.03708
G1 X114.240 Y48.463 E0.05462
G1 X97.504 Y48.454 E0.52476
G1 X97.224 Y48.484 E0.00881
G1 X96.160 Y48.506 E0.03337
G1 X95.033 Y48.827 E0.03675
G1 X94.007 Y49.437 E0.03742
G1 X93.143 Y50.313 E0.03859
G1 X92.606 Y51.180 E0.03198
G1 X92.236 Y52.374 E0.03918
G1 X92.224 Y55.478 E0.09735
G1 X92.221 Y56.118 F10800.000
G1 F1200.000
G1 X92.196 Y62.333 E0.19487
G1 X87.616 Y62.373 E0.14361
G1 X87.337 Y62.752 F10800.000
G1 F1200.000
G1 X92.572 Y62.707 E0.16416
G1 X92.595 Y55.611 E0.22250
G1 X92.597 Y54.972 F10800.000
G1 F1200.000
G1 X92.605 Y52.458 E0.07881
G1 X92.959 Y51.315 E0.03753
G1 X93.427 Y50.561 E0.02781
G1 X94.221 Y49.748 E0.03565
G1 X95.204 Y49.164 E0.03583
G1 X96.237 Y48.876 E0.03364
G1 X97.248 Y48.861 E0.03170
G1 X97.514 Y48.831 E0.00840
G1 X114.211 Y48.840 E0.52352
G1 X115.769 Y49.317 E0.05108
G1 X116.658 Y49.927 E0.03380
G1 X117.255 Y50.550 E0.02707
G1 X117.340 Y50.685 E0.00498
G1 X117.580 Y51.062 F10800.000
G1 F1200.000
G1 X117.780 Y51.379 E0.01174
G1 X118.174 Y52.647 E0.04166
G1 X118.211 Y62.700 E0.31518
G1 X131.788 Y62.700 E0.42570
G1 X131.817 Y52.706 E0.31334
G1 X132.363 Y51.109 E0.05292
G1 X132.629 Y50.733 F10800.000
G1 F1200.000
G1 X132.832 Y50.445 E0.01105
G1 X133.581 Y49.726 E0.03256
G1 X134.595 Y49.149 E0.03656
G1 X135.936 Y48.831 E0.04321
G1 X150.967 Y48.831 E0.47128
G1 X151.922 Y48.992 E0.03038
G1 X152.931 Y49.428 E0.03445
G1 X154.007 Y50.315 E0.04374
G1 X154.723 Y51.361 E0.03974
G1 X155.119 Y52.589 E0.04045
G1 X155.127 Y54.472 E0.05903
G1 X155.130 Y55.034 F10800.000
G1 F1200.000
G1 X155.163 Y62.702 E0.24041
G1 X162.138 Y62.730 E0.21869
G1 X162.650 Y62.732 F10800.000
G1 F1200.000
G1 X163.852 Y62.736 E0.03768
G1 X164.877 Y63.045 E0.03359
G1 X165.722 Y63.550 E0.03085
G1 X166.570 Y64.400 E0.03767
G1 X167.145 Y65.382 E0.03566
G1 X167.436 Y66.550 E0.03775
G1 X167.397 Y143.730 E2.41994
G1 X167.068 Y144.796 E0.03497
G1 X166.471 Y145.725 E0.03462
G1 X165.894 Y146.303 E0.02563
G1 X165.362 Y146.712 E0.02101
G1 X164.011 Y147.233 E0.04541
G1 X162.703 Y147.242 E0.04103
G1 X162.192 Y147.246 F10800.000
G1 F1200.000
G1 X155.166 Y147.296 E0.22032
G1 X155.146 Y155.079 E0.24405
G1 X155.144 Y155.645 F10800.000
G1 F1200.000
G1 X155.139 Y157.502 E0.05824
G1 X154.846 Y158.532 E0.03358
G1 X154.356 Y159.384 E0.03081
G1 X153.520 Y160.241 E0.03754
G1 X152.558 Y160.828 E0.03532
G1 X151.511 Y161.123 E0.03411
G1 X150.480 Y161.141 E0.03234
G1 X150.223 Y161.169 E0.00810
G1 X136.730 Y161.169 E0.42307
G1 X136.464 Y161.139 E0.00838
G1 X135.471 Y161.127 E0.03115
G1 X134.582 Y160.903 E0.02876
G1 X133.518 Y160.313 E0.03812
G1 X132.641 Y159.440 E0.03881
G1 X132.605 Y159.380 E0.00221
G1 X132.379 Y159.002 F10800.000
G1 F1200.000
G1 X132.133 Y158.592 E0.01501
G1 X131.824 Y157.565 E0.03361
G1 X131.789 Y147.300 E0.32185
G1 X118.213 Y147.300 E0.42568
G1 X118.201 Y157.395 E0.31650
G1 X117.931 Y158.435 E0.03369
G1 X117.642 Y159.002 E0.01996
G1 X117.353 Y159.380 F10800.000
G1 F1200.000
G1 X116.190 Y160.524 E0.05116
G1 X115.510 Y160.867 E0.02387
G1 X114.772 Y161.092 E0.02421
G1 X113.550 Y161.138 E0.03833
G1 X113.270 Y161.169 E0.00883
G1 X96.776 Y161.169 E0.51716
M73 Q0 S236
G1 X96.067 Y161.078 E0.02242
G1 X94.750 Y160.535 E0.04466
G1 X93.675 Y159.631 E0.04406
G1 X92.931 Y158.453 E0.04365
G1 X92.621 Y157.421 E0.03381
G1 X92.609 Y154.902 E0.07897
G1 X92.607 Y154.266 F10800.000
G1 F1200.000
G1 X92.575 Y147.296 E0.21854
M73 P0 R232
G1 X87.408 Y147.262 E0.16203
G1 X86.936 Y147.259 F10800.000
G1 F1200.000
G1 X86.081 Y147.253 E0.02680
G1 X85.115 Y146.951 E0.03174
G1 X84.278 Y146.450 E0.03058
G1 X83.430 Y145.600 E0.03766
G1 X82.855 Y144.618 E0.03567
G1 X82.563 Y143.449 E0.03777
G1 X82.664 Y65.931 E2.43053
G1 X82.899 Y65.274 E0.02189
G1 X83.233 Y64.657 E0.02199
G1 X84.093 Y63.707 E0.04017
G1 X84.948 Y63.126 E0.03241
G1 X85.988 Y62.764 E0.03454
G1 X86.866 Y62.756 E0.02751
G1 X87.063 Y63.123 F10800.000
G1 F1200.000
G1 X92.949 Y63.081 E0.18453
G1 X92.967 Y55.105 E0.25011
G1 X92.969 Y54.466 F10800.000
G1 F1200.000
G1 X92.974 Y52.543 E0.06032
G1 X93.311 Y51.450 E0.03585
G1 X93.734 Y50.780 E0.02484
G1 X94.472 Y50.031 E0.03298
G1 X95.372 Y49.502 E0.03272
G1 X96.312 Y49.246 E0.03053
G1 X97.272 Y49.238 E0.03010
G1 X97.526 Y49.208 E0.00802
G1 X114.182 Y49.217 E0.52225
G1 X115.629 Y49.668 E0.04751
G1 X116.400 Y50.202 E0.02941
G1 X116.864 Y50.683 E0.02097
G1 X117.132 Y51.061 F10800.000
G1 F1200.000
G1 X117.448 Y51.559 E0.01847
G1 X117.805 Y52.731 E0.03842
G1 X117.835 Y63.077 E0.32440
G1 X132.164 Y63.077 E0.44930
G1 X132.184 Y52.797 E0.32231
G1 X132.691 Y51.286 E0.04996
G1 X132.817 Y51.111 E0.00678
G1 X133.088 Y50.734 F10800.000
G1 F1200.000
G1 X133.789 Y50.042 E0.03089
G1 X134.758 Y49.490 E0.03496
G1 X135.958 Y49.208 E0.03865
G1 X150.952 Y49.208 E0.47013
G1 X151.794 Y49.348 E0.02677
G1 X152.756 Y49.764 E0.03286
G1 X153.745 Y50.587 E0.04036
G1 X154.395 Y51.549 E0.03639
G1 X154.751 Y52.674 E0.03702
G1 X154.756 Y54.064 E0.04355
G1 X154.758 Y54.626 F10800.000
G1 F1200.000
G1 X154.788 Y63.078 E0.26501
G1 X162.477 Y63.102 E0.24110
G1 X162.988 Y63.103 F10800.000
G1 F1200.000
G1 X163.771 Y63.106 E0.02454
G1 X164.707 Y63.382 E0.03059
G1 X165.473 Y63.834 E0.02792
G1 X166.259 Y64.615 E0.03471
G1 X166.787 Y65.502 E0.03238
G1 X167.059 Y66.574 E0.03467
G1 X167.028 Y143.648 E2.41662
G1 X166.735 Y144.616 E0.03170
G1 X166.190 Y145.473 E0.03186
G1 X165.636 Y146.027 E0.02457
G1 X165.155 Y146.395 E0.01897
G1 X163.909 Y146.868 E0.04179
G1 X163.034 Y146.873 E0.02744
G1 X162.525 Y146.876 F10800.000
G1 F1200.000
G1 X154.789 Y146.920 E0.24254
G1 X154.773 Y155.493 E0.26880
G1 X154.772 Y156.058 F10800.000
G1 F1200.000
G1 X154.769 Y157.426 E0.04287
G1 X154.506 Y158.367 E0.03065
G1 X154.068 Y159.140 E0.02785
G1 X153.300 Y159.933 E0.03461
G1 X152.430 Y160.473 E0.03210
G1 X151.434 Y160.753 E0.03246
G1 X150.456 Y160.764 E0.03064
G1 X150.212 Y160.792 E0.00771
G1 X136.742 Y160.792 E0.42236
G1 X136.488 Y160.762 E0.00801
G1 X135.538 Y160.755 E0.02978
G1 X134.742 Y160.561 E0.02570
G1 X133.725 Y159.997 E0.03645
G1 X133.112 Y159.380 E0.02727
G1 X132.814 Y159.002 F10800.000
G1 F1200.000
G1 X132.470 Y158.421 E0.02119
G1 X132.193 Y157.485 E0.03060
G1 X132.165 Y146.923 E0.33115
G1 X117.836 Y146.923 E0.44930
G1 X117.830 Y157.323 E0.32608
G1 X117.571 Y158.319 E0.03227
G1 X117.212 Y159.002 E0.02420
G1 X116.829 Y159.380 F10800.000
G1 F1200.000
G1 X115.994 Y160.201 E0.03671
G1 X115.356 Y160.523 E0.02243
G1 X114.687 Y160.724 E0.02187
G1 X113.522 Y160.761 E0.03657
G1 X113.258 Y160.792 E0.00831
G1 X96.788 Y160.792 E0.51641
G1 X96.140 Y160.708 E0.02051
G1 X94.970 Y160.228 E0.03964
G1 X93.940 Y159.362 E0.04219
G1 X93.266 Y158.277 E0.04006
G1 X92.990 Y157.341 E0.03060
G1 X92.983 Y155.405 E0.06068
G1 X92.980 Y154.770 F10800.000
G1 F1200.000
G1 X92.951 Y146.921 E0.24610
G1 X87.131 Y146.890 E0.18247
G1 X86.660 Y146.887 F10800.000
G1 F1200.000
G1 X86.165 Y146.884 E0.01553
G1 X85.286 Y146.615 E0.02880
G1 X84.526 Y146.165 E0.02769
G1 X83.741 Y145.385 E0.03470
G1 X83.213 Y144.498 E0.03238
G1 X82.941 Y143.425 E0.03469
G1 X83.030 Y66.028 E2.42675
G1 X83.249 Y65.415 E0.02041
G1 X83.553 Y64.858 E0.01989
G1 X84.355 Y63.978 E0.03733
G1 X85.137 Y63.453 E0.02952
G1 X86.081 Y63.130 E0.03128
G1 X86.593 Y63.127 E0.01605
G1 X86.790 Y63.494 F10800.000
G1 F1200.000
G1 X93.325 Y63.457 E0.20490
G1 X93.339 Y54.600 E0.27770
G1 X93.340 Y53.962 F10800.000
G1 F1200.000
G1 X93.342 Y52.627 E0.04187
G1 X93.664 Y51.587 E0.03413
G1 X94.040 Y51.002 E0.02181
G1 X94.722 Y50.315 E0.03035
G1 X95.538 Y49.841 E0.02959
G1 X96.384 Y49.617 E0.02742
G1 X97.295 Y49.615 E0.02858
G1 X97.538 Y49.585 E0.00766
G1 X114.152 Y49.594 E0.52095
G1 X115.486 Y50.018 E0.04389
G1 X116.142 Y50.478 E0.02511
G1 X116.341 Y50.681 E0.00892
G1 X116.685 Y51.060 F10800.000
G1 F1200.000
G1 X117.115 Y51.738 E0.02518
G1 X117.436 Y52.812 E0.03515
G1 X117.458 Y63.454 E0.33366
G1 X132.541 Y63.454 E0.47292
G1 X132.551 Y52.888 E0.33128
G1 X133.039 Y51.435 E0.04805
G1 X133.277 Y51.112 E0.01259
G1 X133.607 Y50.736 F10800.000
G1 F1200.000
G1 X133.996 Y50.357 E0.01703
G1 X134.920 Y49.832 E0.03334
G1 X135.979 Y49.585 E0.03408
G1 X150.937 Y49.585 E0.46899
G1 X151.666 Y49.703 E0.02316
G1 X152.580 Y50.099 E0.03123
G1 X153.481 Y50.857 E0.03693
G1 X154.066 Y51.734 E0.03305
G1 X154.382 Y52.758 E0.03360
G1 X154.385 Y53.656 E0.02815
G1 X154.386 Y54.218 F10800.000
G1 F1200.000
G1 X154.411 Y63.454 E0.28960
G1 X162.815 Y63.473 E0.26350
G1 X163.326 Y63.474 F10800.000
G1 F1200.000
G1 X163.692 Y63.475 E0.01147
G1 X164.538 Y63.720 E0.02761
G1 X165.227 Y64.121 E0.02498
G1 X165.949 Y64.831 E0.03176
G1 X166.429 Y65.625 E0.02909
G1 X166.682 Y66.598 E0.03154
G1 X166.651 Y143.619 E2.41493
G1 X166.383 Y144.479 E0.02825
G1 X165.909 Y145.221 E0.02761
G1 X165.378 Y145.752 E0.02353
G1 X164.950 Y146.078 E0.01688
G1 X163.810 Y146.503 E0.03816
G1 X163.365 Y146.505 E0.01392
G1 X162.856 Y146.507 F10800.000
G1 F1200.000
G1 X154.412 Y146.545 E0.26475
G1 X154.401 Y155.907 E0.29355
G1 X154.400 Y156.472 F10800.000
G1 F1200.000
G1 X154.399 Y157.351 E0.02757
G1 X154.165 Y158.205 E0.02774
G1 X153.779 Y158.897 E0.02488
G1 X153.079 Y159.627 E0.03169
G1 X152.299 Y160.118 E0.02891
G1 X151.404 Y160.377 E0.02922
G1 X150.431 Y160.387 E0.03049
G1 X150.200 Y160.415 E0.00730
G1 X136.754 Y160.415 E0.42160
G1 X136.511 Y160.385 E0.00765
G1 X135.602 Y160.383 E0.02850
G1 X134.899 Y160.217 E0.02266
G1 X133.973 Y159.711 E0.03309
G1 X133.644 Y159.380 E0.01465
G1 X133.269 Y159.002 F10800.000
G1 F1200.000
G1 X133.211 Y158.943 E0.00261
G1 X132.808 Y158.252 E0.02509
G1 X132.563 Y157.406 E0.02761
G1 X132.542 Y146.546 E0.34050
G1 X117.459 Y146.546 E0.47293
G1 X117.459 Y157.252 E0.33566
G1 X117.212 Y158.203 E0.03082
G1 X116.907 Y158.786 E0.02061
G1 X116.687 Y159.002 E0.00967
G1 X116.304 Y159.380 F10800.000
G1 F1200.000
G1 X115.798 Y159.877 E0.02226
G1 X115.201 Y160.179 E0.02097
G1 X114.605 Y160.355 E0.01949
G1 X113.493 Y160.385 E0.03487
G1 X113.246 Y160.415 E0.00780
G1 X96.801 Y160.415 E0.51563
G1 X96.215 Y160.337 E0.01855
G1 X95.143 Y159.892 E0.03639
G1 X94.209 Y159.095 E0.03850
G1 X93.601 Y158.103 E0.03648
G1 X93.360 Y157.263 E0.02742
G1 X93.356 Y155.908 E0.04248
G1 X93.354 Y155.272 F10800.000
G1 F1200.000
G1 X93.327 Y146.545 E0.27365
G1 X86.856 Y146.518 E0.20291
G1 X86.385 Y146.516 F10800.000
G1 F1200.000
G1 X86.246 Y146.515 E0.00433
G1 X85.456 Y146.278 E0.02588
